X:1
T:E minor Timothy Swan, 1801
T:Isaac Watts, 1709 (Psalm 90, Part 3)     86. 86. (C. M.)
T:Ronda
T:Transcribed from Swan's New England Harmony, 1801
T:No Copyright.  Transcribed from New England Harmony, 1801.
Z:No Copyright.  Transcribed from New England Harmony, 1801.
%%score [ 1 2 3 4 ]
L:1/8
Q:1/4=120
M:4/4
K:G
V:1 treble nm="Tr." snm="Tr."
V:2 treble nm="C." snm="C."
V:3 treble-8 nm="T." snm="T."
V:4 bass nm="B." snm="B."
V:1
 B8 | B2 B2 e4 | B4 B2 G2 | d8 | d4 e2 d2 | B2 B2 B4- | B4 d4 | B2 B2 d4 | (d2 B2) A2 G2 | %9
"^1. mourn _________________   our  ab –sence  from _________  thy  face, ______ our     ab  – sence  from  thy  face." (B4 A2 G2 | %10
 d8) | G4 B4 | B2 (e2 e4 | d2) d2 B4- | B4 B4 | B2 g2 d2 d2 | B8 |] %17
V:2
"^1. Re –  turn,   O      God      of      love,   re  –  turn,        Earth  is   a     tiresome   place.        How long shall  we,   Thy    children" E8 | %1
 E2 E2 G4 | B4 G2 G2 | A8 | B4 B2 B2 | G2 E2 B4- | B4 G4 | G2 G2 A4 | B4 A2 G2 | %9
"^2. tears  ________________        so  make  our         joys _______     in–crease,        so     make  our  joys    in – crease." (F6 G2 | %10
 A8) | G4 G4 | E4 (E4 | F2) G2 B4- | B4 G4 | G2 G2 B2 B2 | B8 |] %17
V:3
 E8 | G2 GA B4 | e4 d2 cB | A8 | B4 G2 E2 | B2 AG F4- | F4 B4 | e2 e2 f4 | g4 f2 e2 | %9
"^3. know,  _________________     and  own   thy       love ________  is   great, ____  and     own  thy  love   is     great." (d2 e2 d2 B2 | %10
 A8) | B4 e4 | B4 (c2 A2 | B2) G2 (E4 | B4) e4 | dB G2 AG F2 | E8 |] %17
V:4
"^3. Thy      wonders   to       Thy     servants    show,     Make  thy own work complete.        Then shall our  souls  thy     glo–ry""^4. Then   shall  we  shine   be–fore   thy     throne       In    all  thy   beauty,     Lord.           And      the  poor  ser–vice     we  have" E,8 | %1
 E,2 E,2 E,4 | E,4 G,2 G,2 | D,8 | B,,4 E,2 G,2 | E,2 E,2 B,,4- | B,,4 G,4 | E,2 E,2 D,4 | %8
 G,4 D,2 E,2 | %9
"^4. done ________________      meet   a        di    –     vine _______  re – ward, ____ meet  a       di–vine      re  – ward." (B,,3 C, D,2 G,2 | %10
 D,8) | G,4 E,4 | E,4 (A,,4 | B,,2) B,,2 E,4- | E,4 E,4 | G,2 G,2 B,2 B,,2 | E,8 |] %17

